brandFactory_export/3.Masa/Kit_3Masa.svg

<?xml version="1.0" encoding="UTF-8"?>
<svg width="24px" height="24px" viewBox="0 0 24 24" version="1.1" xmlns="http://www.w3.org/2000/svg" xmlns:xlink="http://www.w3.org/1999/xlink">
    <title>3.Masa/Kit_3Masa</title>
    <g id="Symbols" stroke="none" stroke-width="1" fill="none" fill-rule="evenodd">
        <g id="3.Masa/Kit_3Masa" fill="#5CB615" fill-rule="nonzero">
            <path d="M7.6,3.53613445 L7.6,5.45210084 L16.0268908,5.45210084 L16.0268908,3.53613445 C15.9798319,3.50588235 15.8857143,3.47226891 15.7546218,3.47226891 L7.87563025,3.47226891 C7.74117647,3.46890756 7.64705882,3.50588235 7.6,3.53613445 L7.6,3.53613445 Z M21.8756303,5.45210084 C22.8403361,5.45210084 23.6235294,6.22521008 23.6235294,7.17983193 L23.6235294,20.9613445 C23.6235294,21.912605 22.8403361,22.6857143 21.8756303,22.6857143 L1.74789916,22.6857143 C0.783193277,22.6857143 0,21.912605 0,20.9613445 L0,7.17983193 C0,6.22857143 0.783193277,5.45210084 1.74789916,5.45210084 L6.1210084,5.45210084 L6.1210084,3.45882353 C6.1210084,2.65210084 6.88739496,2.01680672 7.86890756,2.01680672 L15.7478992,2.01680672 C16.7294118,2.01680672 17.4991597,2.65210084 17.4991597,3.45882353 L17.4991597,5.45210084 L21.8756303,5.45210084 Z M16.2285714,11.8621849 L14.0436975,11.8621849 L14.0436975,9.71092437 C14.0436975,9.0487395 13.502521,8.46722689 12.887395,8.46722689 L10.7260504,8.46722689 C10.1109244,8.46722689 9.57310924,9.0487395 9.57310924,9.71092437 L9.57310924,11.8655462 L7.39159664,11.8655462 C6.70588235,11.8655462 6.13109244,12.3865546 6.13109244,13.005042 L6.13109244,15.1361345 C6.13109244,15.7546218 6.7092437,16.2756303 7.39495798,16.2756303 L9.57983193,16.2756303 L9.57983193,18.4268908 C9.57983193,19.102521 10.107563,19.6705882 10.7327731,19.6705882 L12.897479,19.6705882 C13.5226891,19.6705882 14.0504202,19.0991597 14.0504202,18.4235294 L14.0504202,16.2689076 L16.2319328,16.2689076 C16.9042017,16.2689076 17.492437,15.7378151 17.492437,15.1294118 L17.492437,12.9983193 C17.492437,12.3932773 16.9008403,11.8621849 16.2285714,11.8621849 Z" id="Kit_3Masa"></path>
        </g>
    </g>
</svg>

<svg width="24" height="24" viewBox="0 0 24 24" xmlns="http://www.w3.org/2000/svg"><path d="M7.6 3.536v1.916h8.427V3.536a.524.524 0 00-.272-.064h-7.88a.498.498 0 00-.275.064zm14.276 1.916c.964 0 1.748.773 1.748 1.728V20.96c0 .952-.784 1.725-1.748 1.725H1.748A1.737 1.737 0 010 20.96V7.18a1.74 1.74 0 011.748-1.728H6.12V3.46c0-.807.766-1.442 1.748-1.442h7.879c.981 0 1.751.635 1.751 1.442v1.993h4.377zm-5.647 6.41h-2.185V9.711c0-.662-.541-1.244-1.157-1.244h-2.16c-.616 0-1.154.582-1.154 1.244v2.155H7.392c-.686 0-1.26.52-1.26 1.139v2.131c0 .619.577 1.14 1.263 1.14H9.58v2.15c0 .677.528 1.245 1.153 1.245h2.164c.626 0 1.153-.572 1.153-1.247v-2.155h2.182c.672 0 1.26-.531 1.26-1.14V13c0-.606-.591-1.137-1.263-1.137z" fill="#5CB615" fill-rule="nonzero"/></svg>
